src/actions/symbolic/restaurant-symbolic.svg

<svg width="16" height="16" version="1.1" viewBox="0 0 16 16" xmlns="http://www.w3.org/2000/svg">
 <path d="m4.5 1v5.957c-1.4224-0.23666-2.5-1.4654-2.5-2.957v-2h-1v2c0 2.0466 1.5218 3.7221 3.5 3.9668v7.0332h1v-7.0332c1.9782-0.24466 3.5-1.9202 3.5-3.9668v-2h-1v2c0 1.4916-1.0776 2.7204-2.5 2.957v-5.957h-1zm9.5 0a4 5 0 0 0-4 5 4 5 0 0 0 3 4.8379v4.1621h1v-4-1-8-1zm-1 1.2383v7.5234a3 4 0 0 1-2-3.7617 3 4 0 0 1 2-3.7617z" fill="#363636" style="paint-order:stroke fill markers"/>
</svg>

<svg xmlns="http://www.w3.org/2000/svg" width="16" height="16">
    <path fill="#050505" d="M4.5 1v5.957A2.99 2.99 0 0 1 2 4V2H1v2a3.988 3.988 0 0 0 3.5 3.967V15h1V7.967A3.988 3.988 0 0 0 9 4V2H8v2a2.99 2.99 0 0 1-2.5 2.957V1h-1zM14 1a4 5 0 0 0-4 5 4 5 0 0 0 3 4.838V15h1V1zm-1 1.238v7.524A3 4 0 0 1 11 6a3 4 0 0 1 2-3.762z" opacity=".7" style="paint-order:stroke fill markers"/>
</svg>
